assets/images/ico_download.svg

<svg width="28" height="23" viewBox="0 0 28 23" fill="none" xmlns="http://www.w3.org/2000/svg">
<path fill-rule="evenodd" clip-rule="evenodd" d="M13.249 14.2477V1.76762C13.249 1.34367 13.6018 1 14.0095 1C14.4295 1 14.77 1.34288 14.77 1.76762V14.2288L17.7589 11.249C18.0491 10.9597 18.5359 10.9564 18.8342 11.2538C19.1237 11.5424 19.1346 12.031 18.8389 12.3257L14.5971 16.5545C14.5804 16.5753 14.5624 16.5954 14.5431 16.6145C14.3934 16.7638 14.1961 16.8373 14 16.8369C13.8039 16.8373 13.6066 16.7638 13.4569 16.6145C13.4376 16.5954 13.4196 16.5753 13.4029 16.5545L9.16106 12.3257C8.86545 12.031 8.8763 11.5424 9.16582 11.2538C9.46407 10.9564 9.95087 10.9597 10.2411 11.249L13.249 14.2477ZM25.5556 21.16V14.667C25.5556 14.2766 25.8906 13.96 26.2778 13.96C26.6766 13.96 27 14.2881 27 14.667V21.893C27 22.2834 26.665 22.6 26.2778 22.6C26.2777 22.6 26.2777 22.6 26.2776 22.6C26.2776 22.6 26.2775 22.6 26.2775 22.6H1.72253C1.52519 22.6 1.34633 22.5183 1.21593 22.3891C1.08085 22.2592 1 22.0824 1 21.893V14.667C1 14.2766 1.33502 13.96 1.72222 13.96C2.12109 13.96 2.44444 14.2881 2.44444 14.667V21.16H25.5556Z" fill="#6E91B1" stroke="#6E91B1" stroke-width="0.7"/>
</svg>

<svg width="28" height="23" fill="none" xmlns="http://www.w3.org/2000/svg"><path fill-rule="evenodd" clip-rule="evenodd" d="M13.249 14.248V1.768c0-.424.353-.768.76-.768.42 0 .761.343.761.768v12.46l2.989-2.979a.767.767 0 011.075.005c.29.288.3.777.005 1.072l-4.242 4.229a.764.764 0 01-.597.282.764.764 0 01-.597-.282l-4.242-4.23a.764.764 0 01.005-1.071.767.767 0 011.075-.005l3.008 2.999zm12.307 6.912v-6.493a.722.722 0 011.444 0v7.226c0 .39-.335.707-.722.707 0 0 0 0 0 0s0 0 0 0H1.723a.72.72 0 01-.507-.21.689.689 0 01-.216-.497v-7.226a.722.722 0 011.444 0v6.493h23.112z" fill="#6E91B1" stroke="#6E91B1" stroke-width=".7"/></svg>
